src/pos-icons/email-open.svg

<svg height="24" viewBox="0 0 24 24" width="24" xmlns="http://www.w3.org/2000/svg"><path d="m4 8 8 5 8-5-8-5zm18 0v10a2 2 0 0 1 -2 2h-16a2 2 0 0 1 -2-2v-10c0-.73.39-1.36.97-1.71l9.03-5.65 9.03 5.65c.58.35.97.98.97 1.71z"/></svg>

<?xml version="1.0" encoding="UTF-8"?><!DOCTYPE svg PUBLIC "-//W3C//DTD SVG 1.1//EN" "http://www.w3.org/Graphics/SVG/1.1/DTD/svg11.dtd"><svg xmlns="http://www.w3.org/2000/svg" xmlns:xlink="http://www.w3.org/1999/xlink" version="1.1" id="mdi-email-open" width="24" height="24" viewBox="0 0 24 24"><path d="M4,8L12,13L20,8V8L12,3L4,8V8M22,8V18A2,2 0 0,1 20,20H4A2,2 0 0,1 2,18V8C2,7.27 2.39,6.64 2.97,6.29L12,0.64L21.03,6.29C21.61,6.64 22,7.27 22,8Z" /></svg>
